X: 1
T:The Rose Tree
M:4/4
C:
S:Bacon (Jour 1956)
N:
A:Bampton
O:English
R:Reel
%P:A.(AB$^3$)$^3$.A
P:A.(AB3)3.A
K:G
I:speed 400
P:A
BA | G2    (3EFE D2 B,2 | DEDB, D2  B,D | G2 G2 BAGA  | B2 A2 AcBA |\
     G2    E2    D2 B,2 | DEDB, G,2 B,D | G2 FG A2 GA | B2 G2 G2   ||\
P:B
GA | (3BcB A2    B2 c2  | d2 g2 d2  cB  | A2 B2 c2 d2 | efge  dcBA |\
     G2    (3EFE D2 B,2 | DEDB, G,2 B,D | G2 FG A2 GA | B2 G2 G2   ||
